images/logo.svg

<svg width="108" height="46" viewBox="0 0 108 46" fill="none" xmlns="http://www.w3.org/2000/svg">
<path d="M5.85938 10.6328L4.07812 9.55469C2.96094 8.875 2.16406 8.20703 1.6875 7.55078C1.21875 6.88672 0.984375 6.125 0.984375 5.26562C0.984375 3.97656 1.42969 2.92969 2.32031 2.125C3.21875 1.32031 4.38281 0.917969 5.8125 0.917969C7.17969 0.917969 8.43359 1.30078 9.57422 2.06641V4.72656C8.39453 3.59375 7.125 3.02734 5.76562 3.02734C5 3.02734 4.37109 3.20703 3.87891 3.56641C3.38672 3.91797 3.14062 4.37109 3.14062 4.92578C3.14062 5.41797 3.32031 5.87891 3.67969 6.30859C4.03906 6.73828 4.62109 7.1875 5.42578 7.65625L7.21875 8.71094C9.21875 9.89844 10.2188 11.4141 10.2188 13.2578C10.2188 14.5703 9.77734 15.6367 8.89453 16.457C8.01953 17.2773 6.87891 17.6875 5.47266 17.6875C3.85547 17.6875 2.38281 17.1914 1.05469 16.1992V13.2227C2.32031 14.8242 3.78516 15.625 5.44922 15.625C6.18359 15.625 6.79297 15.4219 7.27734 15.0156C7.76953 14.6016 8.01562 14.0859 8.01562 13.4688C8.01562 12.4688 7.29688 11.5234 5.85938 10.6328ZM24.3398 1.12891H26.6836V17.5H24.3398V10.375H15.1406V17.5H12.7969V1.12891H15.1406V8.20703H24.3398V1.12891ZM38.3438 0.894531C40.875 0.894531 42.9805 1.69531 44.6602 3.29688C46.3477 4.89844 47.1914 6.90625 47.1914 9.32031C47.1914 11.7344 46.3398 13.7344 44.6367 15.3203C42.9414 16.8984 40.8008 17.6875 38.2148 17.6875C35.7461 17.6875 33.6875 16.8984 32.0391 15.3203C30.3984 13.7344 29.5781 11.75 29.5781 9.36719C29.5781 6.92188 30.4062 4.89844 32.0625 3.29688C33.7188 1.69531 35.8125 0.894531 38.3438 0.894531ZM38.4375 3.12109C36.5625 3.12109 35.0195 3.70703 33.8086 4.87891C32.6055 6.05078 32.0039 7.54688 32.0039 9.36719C32.0039 11.1328 32.6094 12.6016 33.8203 13.7734C35.0312 14.9453 36.5469 15.5312 38.3672 15.5312C40.1953 15.5312 41.7188 14.9336 42.9375 13.7383C44.1641 12.543 44.7773 11.0547 44.7773 9.27344C44.7773 7.53906 44.1641 6.08203 42.9375 4.90234C41.7188 3.71484 40.2188 3.12109 38.4375 3.12109ZM49.9336 17.5V1.10547H55.125C56.6875 1.10547 57.9336 1.52734 58.8633 2.37109C59.793 3.21484 60.2578 4.34766 60.2578 5.76953C60.2578 6.72266 60.0195 7.56641 59.543 8.30078C59.0664 9.03516 58.4141 9.57031 57.5859 9.90625C56.7578 10.2344 55.5703 10.3984 54.0234 10.3984H52.2891V17.5H49.9336ZM54.7148 3.19141H52.2891V8.3125H54.8555C55.8086 8.3125 56.543 8.08984 57.0586 7.64453C57.5742 7.19141 57.832 6.54688 57.832 5.71094C57.832 4.03125 56.793 3.19141 54.7148 3.19141ZM16.875 40.8945C16.875 42.293 16.3945 43.4102 15.4336 44.2461C14.4805 45.082 13.1445 45.5 11.4258 45.5H2.03906V29.2578H9.89062C10.9062 29.2578 11.7891 29.3555 12.5391 29.5508C13.2969 29.7461 13.9062 30.0156 14.3672 30.3594C14.8281 30.6953 15.1719 31.0938 15.3984 31.5547C15.625 32.0156 15.7383 32.5195 15.7383 33.0664C15.7383 33.6602 15.6211 34.2109 15.3867 34.7188C15.1523 35.2188 14.8594 35.6328 14.5078 35.9609C14.1641 36.2812 13.8164 36.5078 13.4648 36.6406C14.5742 37.0781 15.418 37.6328 15.9961 38.3047C16.582 38.9688 16.875 39.832 16.875 40.8945ZM11.1562 33.9336C11.1562 33.1523 10.8984 32.6328 10.3828 32.375C9.86719 32.1172 9.0625 31.9883 7.96875 31.9883H6.9375V35.8789H7.99219C9.10938 35.8789 9.91406 35.75 10.4062 35.4922C10.9062 35.2344 11.1562 34.7148 11.1562 33.9336ZM11.9531 40.6953C11.9531 39.3047 10.9453 38.6094 8.92969 38.6094H6.9375V42.7695H8.92969C10.9453 42.7695 11.9531 42.0781 11.9531 40.6953ZM37.1484 45.5H32.1328L30.8086 42.207H23.7539L22.4062 45.5H17.3906L24.5742 29.2578H29.9883L37.1484 45.5ZM29.6836 39.3828L27.3047 33.4531L24.9023 39.3828H29.6836ZM56.3906 45.5H50.4141L44.2031 37.8945V45.5H39.3047V29.2578H44.2031V36.5234L50.0859 29.2578H55.4062L49.3594 36.8633L56.3906 45.5ZM70.7695 45.5H58.5234V29.2578H70.5703V32.5156H63.4219V35.4922H70.2422V38.7617H63.4219V42.2305H70.7695V45.5ZM89.7891 45.5H84.5273L83.25 42.6172C82.7812 41.5625 82.3594 40.793 81.9844 40.3086C81.6094 39.8164 81.2422 39.5039 80.8828 39.3711C80.5312 39.2305 80.0742 39.1602 79.5117 39.1602H78.9609V45.5H74.0625V29.2578H82.3945C83.7383 29.2578 84.8398 29.5312 85.6992 30.0781C86.5586 30.625 87.1758 31.2891 87.5508 32.0703C87.9336 32.8516 88.125 33.5938 88.125 34.2969C88.125 35.1172 87.9648 35.8125 87.6445 36.3828C87.332 36.9453 87 37.3555 86.6484 37.6133C86.2969 37.8711 85.9023 38.1172 85.4648 38.3516C85.9883 38.6562 86.418 39.0195 86.7539 39.4414C87.0977 39.8555 87.5625 40.6992 88.1484 41.9727L89.7891 45.5ZM83.1328 34.3906C83.1328 33.6406 82.8867 33.1172 82.3945 32.8203C81.9023 32.5234 81.1016 32.375 79.9922 32.375H78.9609V36.2891H80.0156C81.2109 36.2891 82.0273 36.1602 82.4648 35.9023C82.9102 35.6367 83.1328 35.1328 83.1328 34.3906ZM107.156 29.2578L100.793 38.0586V45.5H95.8945V38.1523L89.4141 29.2578H94.5L98.2266 34.3672L101.965 29.2578H107.156Z" fill="#FAF4EA"/>
</svg>

<svg width="108" height="46" fill="none" xmlns="http://www.w3.org/2000/svg"><path d="M5.86 10.633 4.077 9.555c-1.117-.68-1.914-1.348-2.39-2.004-.47-.664-.704-1.426-.704-2.285 0-1.29.446-2.336 1.336-3.141C3.22 1.32 4.383.918 5.813.918c1.367 0 2.62.383 3.761 1.148v2.66c-1.18-1.132-2.449-1.699-3.808-1.699-.766 0-1.395.18-1.887.54-.492.351-.738.804-.738 1.359 0 .492.18.953.539 1.383.36.43.941.878 1.746 1.347l1.793 1.055c2 1.187 3 2.703 3 4.547 0 1.312-.442 2.379-1.324 3.199-.875.82-2.016 1.23-3.422 1.23-1.618 0-3.09-.496-4.418-1.488v-2.976c1.265 1.601 2.73 2.402 4.394 2.402.735 0 1.344-.203 1.828-.61.493-.413.739-.93.739-1.546 0-1-.72-1.946-2.157-2.836Zm18.48-9.504h2.344V17.5H24.34v-7.125h-9.2V17.5h-2.343V1.129h2.344v7.078h9.199V1.129ZM38.344.895c2.531 0 4.636.8 6.316 2.402 1.688 1.601 2.531 3.61 2.531 6.023 0 2.414-.851 4.414-2.554 6-1.696 1.578-3.836 2.367-6.422 2.367-2.469 0-4.528-.789-6.176-2.367-1.64-1.586-2.46-3.57-2.46-5.953 0-2.445.827-4.469 2.483-6.07C33.72 1.695 35.813.895 38.344.895Zm.093 2.226c-1.874 0-3.417.586-4.628 1.758-1.203 1.172-1.805 2.668-1.805 4.488 0 1.766.605 3.235 1.816 4.406 1.211 1.172 2.727 1.758 4.547 1.758 1.828 0 3.352-.597 4.57-1.793 1.227-1.195 1.84-2.683 1.84-4.465 0-1.734-.613-3.191-1.84-4.37-1.218-1.188-2.718-1.782-4.5-1.782ZM49.934 17.5V1.105h5.191c1.563 0 2.809.422 3.738 1.266.93.844 1.395 1.977 1.395 3.399 0 .953-.239 1.796-.715 2.53a4.122 4.122 0 0 1-1.957 1.606c-.828.328-2.016.492-3.563.492H52.29V17.5h-2.355Zm4.78-14.309H52.29v5.122h2.566c.954 0 1.688-.223 2.204-.668.515-.454.773-1.098.773-1.934 0-1.68-1.039-2.52-3.117-2.52ZM16.876 40.895c0 1.398-.48 2.515-1.441 3.351-.954.836-2.29 1.254-4.008 1.254H2.039V29.258h7.852c1.015 0 1.898.098 2.648.293.758.195 1.367.465 1.828.808.461.336.805.735 1.031 1.196.227.46.34.965.34 1.511a3.99 3.99 0 0 1-1.23 2.895c-.344.32-.692.547-1.043.68 1.11.437 1.953.992 2.531 1.664.586.664.879 1.527.879 2.59Zm-5.719-6.961c0-.782-.258-1.301-.773-1.559-.516-.258-1.32-.387-2.414-.387H6.937v3.89h1.055c1.117 0 1.922-.128 2.414-.386.5-.258.75-.777.75-1.558Zm.797 6.761c0-1.39-1.008-2.086-3.023-2.086H6.938v4.16H8.93c2.015 0 3.023-.69 3.023-2.074ZM37.148 45.5h-5.015l-1.324-3.293h-7.055L22.406 45.5h-5.015l7.183-16.242h5.414l7.16 16.242Zm-7.464-6.117-2.38-5.93-2.402 5.93h4.782ZM56.39 45.5h-5.977l-6.21-7.605V45.5h-4.9V29.258h4.9v7.265l5.882-7.265h5.32l-6.047 7.605 7.032 8.637Zm14.378 0H58.523V29.258H70.57v3.258h-7.148v2.976h6.82v3.27h-6.82v3.468h7.347v3.27Zm19.02 0h-5.262l-1.277-2.883c-.469-1.054-.89-1.824-1.266-2.308-.375-.493-.742-.805-1.101-.938-.352-.14-.809-.21-1.371-.21h-.551V45.5h-4.898V29.258h8.331c1.344 0 2.446.273 3.305.82.86.547 1.477 1.211 1.852 1.992.383.782.574 1.524.574 2.227 0 .82-.16 1.516-.48 2.086-.313.562-.645.972-.997 1.23a9.925 9.925 0 0 1-1.183.739c.523.304.953.668 1.289 1.09.344.413.808 1.257 1.394 2.53L89.79 45.5Zm-6.656-11.11c0-.75-.246-1.273-.739-1.57-.492-.297-1.292-.445-2.402-.445h-1.031v3.914h1.055c1.195 0 2.011-.129 2.449-.387.445-.265.668-.77.668-1.511Zm24.023-5.132-6.363 8.8V45.5h-4.899v-7.348l-6.48-8.894H94.5l3.727 5.11 3.738-5.11h5.191Z" fill="#FAF4EA"/></svg>
